X:5910
T:Gan Ainm
R:reel
S:
H:
N:
D:Milltown Session
Z:Adrian Scahill
M:4/4
L:1/8
K:D
A3F ABde|faaf ed (3Bcd|effd ed (3Bcd|(3efg fd edBd|\
A3F ABde|faaf ed (3Bcd|effd eBB2|ABde d4:||\
Add2 AdBF|A3d feef|(3gfe fd edBd|fgfd edBd|\
1 Add2 AdBF|A3d feed|effd eBB2|ABde d4:|2 A3F ABde|faaf ed (3Bcd|effd eBB2|ABde d4||


